X: 24237
T: Lord Of Carnarvan's Jigg
R: barndance
M: 4/4
K: Gmajor
|:d2|B2G2 Bcd2|c2A2 ABc2|B2G2 D2EF|1 G4 D2:|2 G2G2 D2-||
|:D2|GFED G2GB|A2A2 c2dc|B2G2 B3A|1 G2G2 D2-:|2 G4-G2||

